!!!!SEGMENT: pl-kk--kk-i-328--003_constanzi--beatus-vir-gloria-et-divitiae.krn
!!!cenid: 17xx:2141
!!!COM: Constanzi
!!!COM-rismID: pe50046616
!!!CDT:
!!!CNT:
!!!OPR: Beatus vir
!!!OTL: Gloria et divitiae
!!!OMV: 003
!!!PDT:
!!!AGN: Sacred
!!!SMS-siglum: PL-Kk
!!!SMS-shelfmark: Kk.I.328
!!!SMS-shelfwork: 001-003 M
!!!SMS-variant:
!!!SMS-altvar:
!!!NIFC-rismSourceID: 1001145915
!!!NIFC-rismChildID: 1001145915
!!!NIFC-islandoraID: pl-kk:5487
!!!URL-pdf-islandora: https://repozytorium.nifc.pl/islandora/object/pl-kk%3A5487/datastream/PDF/view
!!!URL-scan: https://polish.musicsources.pl/pl/lokalizacje/galeria/rekopisy/5947 @EN{Scan on Polish Music Sources Website} @PL{Skany w portalu Dziedzictwo Muzyki Polskiej w otwartym dostępie}
!!!ONB-nifc: UWAGA: części Beatus vir: 1. Beatus vir, 2. Potens in terra, 3. Gloria et divitiae, 4. Exortum est 5. Iucundus homo, 6. In memoria, 7. Paratum cor eius, 8. Peccator videbit, 9. Gloria patri
!!!AIN: 2 alto 1 bass 1 organ 1 tenor 2 vox
!!!key:
**kern	**fba	**kern	**kern	**kern	**kern	**kern	**text	**kern
*part7	*part7	*part6	*part5	*part4	*part3	*part2	*part2	*part1
*staff7	*staff7	*staff6	*staff5	*staff4	*staff3	*staff2	*staff2	*staff1
*Iorgan	*	*Ibass	*Itenor	*Ialto	*Ivox	*Ialto	*	*Ivox
*I"Organo	*	*I"Basso di ripieno	*I"Tenore di ripieno	*I"Alto di ripieno	*I"Canto di ripieno	*I"Alto	*	*I"Canto
*I'Org.	*	*I'B. rip.	*I'T. rip.	*I'A. rip.	*I'C.rip.	*I'A.	*	*I'C.
*clefF4	*	*clefF4	*clefC4	*clefC3	*clefC1	*clefC3	*	*clefC1
*k[f#c#]	*	*k[f#c#]	*k[f#c#]	*k[f#c#]	*k[f#c#]	*k[f#c#]	*	*k[f#c#]
*D:	*	*D:	*D:	*D:	*D:	*D:	*	*D:
*M3/8	*	*M3/8	*M3/8	*M3/8	*M3/8	*M3/8	*	*M3/8
=1	=1	=1	=1	=1	=1	=1	=1	=1
!LO:TX:t=P:problem=all\right&colon; global	!	!	!	!	!	!LO:TX:t=P:problem=all\right&colon; global	!	!
!LO:TX:a:t=rit(ornel)lo.	!	!	!	!	!	!LO:TX:a:t=all(egr)o ma non tanto	!	!
!LO:TX:b:t=Gloria et divitae	!	!	!	!	!	!LO:TX:a:t=Solo	!	!
!LO:TX:a:t=All(egr)o non tanto	!	!LO:TX:a:t=Gloria et divitiae Tacet	!LO:TX:a:t=Gloria et divitiae Tacet	!LO:TX:a:t=Gloria, et divitiae Tacet	!LO:TX:a:t=Gloria, et divitiae Tacet	!LO:TX:b:t=5	!	!LO:TX:a:t=Gloria, et divitiae Tacet
!	!	!	!	!	!	!LO:TX:t=P:problem=pauza 00r+1r	!	!
8.D\L	.	4.ryy	4.ryy	4.ryy	4.ryy	4.r	.	4.ryy
16E\K	.	.	.	.	.	.	.	.
8D\J	.	.	.	.	.	.	.	.
=2	=2	=2	=2	=2	=2	=2	=2	=2
8D\	.	4.ryy	4.ryy	4.ryy	4.ryy	4.r	.	4.ryy
4d\	.	.	.	.	.	.	.	.
=3	=3	=3	=3	=3	=3	=3	=3	=3
16c#\LL	.	4.ryy	4.ryy	4.ryy	4.ryy	4.r	.	4.ryy
16B\JJ	.	.	.	.	.	.	.	.
4A\	.	.	.	.	.	.	.	.
=4	=4	=4	=4	=4	=4	=4	=4	=4
8B\L	.	4.ryy	4.ryy	4.ryy	4.ryy	4.r	.	4.ryy
8A\	.	.	.	.	.	.	.	.
8G\J	.	.	.	.	.	.	.	.
!LO:LB:g=original	!	!	!	!	!	!	!	!
=5	=5	=5	=5	=5	=5	=5	=5	=5
16F#\LL	.	4.ryy	4.ryy	4.ryy	4.ryy	4.r	.	4.ryy
16E\JJ	.	.	.	.	.	.	.	.
4D\	.	.	.	.	.	.	.	.
=6	=6	=6	=6	=6	=6	=6	=6	=6
!LO:TX:a:t=al.	!	!	!	!	!	!	!	!
4D\	.	4.ryy	4.ryy	4.ryy	4.ryy	8.d\	Glo-	4.ryy
.	.	.	.	.	.	16e\	-ri-	.
8r	.	.	.	.	.	8d\	-a	.
=7	=7	=7	=7	=7	=7	=7	=7	=7
8D\L	.	4.ryy	4.ryy	4.ryy	4.ryy	8d\	et	4.ryy
8F#\	.	.	.	.	.	4dd\	di-	.
8D\J	.	.	.	.	.	.	.	.
!	!	!	!	!	!	!LO:LB:g=original	!	!
=8	=8	=8	=8	=8	=8	=8	=8	=8
4A\	.	4.ryy	4.ryy	4.ryy	4.ryy	16cc#\	-vi-	4.ryy
.	.	.	.	.	.	16b\	-ti-	.
.	.	.	.	.	.	8a\	-ae	.
8r	.	.	.	.	.	8r	.	.
=9	=9	=9	=9	=9	=9	=9	=9	=9
8d\L	.	4.ryy	4.ryy	4.ryy	4.ryy	8dd\	glo-	4.ryy
8c#\	.	.	.	.	.	8cc#\	-ri-	.
8B\J	.	.	.	.	.	8b\	-a	.
=10	=10	=10	=10	=10	=10	=10	=10	=10
8A\L	.	4.ryy	4.ryy	4.ryy	4.ryy	(8a\L	et	4.ryy
8G\	.	.	.	.	.	8g\J)	.	.
8F#\J	.	.	.	.	.	8f#\	di-	.
=11	=11	=11	=11	=11	=11	=11	=11	=11
8E\L	.	4.ryy	4.ryy	4.ryy	4.ryy	16e\	-vi-	4.ryy
.	.	.	.	.	.	16d\	-ti-	.
8E\	.	.	.	.	.	8e\	-ae	.
8E\J	.	.	.	.	.	8r	.	.
!LO:LB:g=original	!	!	!	!	!	!LO:LB:g=original	!	!
=12	=12	=12	=12	=12	=12	=12	=12	=12
4AA/	.	4.ryy	4.ryy	4.ryy	4.ryy	8e\	in	4.ryy
.	.	.	.	.	.	8f#\	do-	.
8r	.	.	.	.	.	8g\	-mo	.
=13	=13	=13	=13	=13	=13	=13	=13	=13
*	*	*	*	*	*	*Xtuplet	*	*
!	!	!	!	!	!	!LO:TUP:a:problem=klamra łukowa	!	!
8D/L	.	4.ryy	4.ryy	4.ryy	4.ryy	24f#\LL	do-	4.ryy
.	.	.	.	.	.	24g\	.	.
.	.	.	.	.	.	24a\JJ	.	.
8BB/	.	.	.	.	.	4g\	.	.
8C#/J	.	.	.	.	.	.	.	.
=14	=14	=14	=14	=14	=14	=14	=14	=14
!	!	!	!	!	!	!LO:TUP:a:problem=klamra łukowa	!	!
8D/L	.	4.ryy	4.ryy	4.ryy	4.ryy	24f#\LL	.	4.ryy
.	.	.	.	.	.	24g\	.	.
.	.	.	.	.	.	24a\JJ	.	.
8BB/	.	.	.	.	.	4g\	.	.
8C#/J	.	.	.	.	.	.	.	.
=15	=15	=15	=15	=15	=15	=15	=15	=15
8D\L	.	4.ryy	4.ryy	4.ryy	4.ryy	8f#\L	.	4.ryy
8E\	.	.	.	.	.	8g\J	.	.
8F#\J	.	.	.	.	.	8a\	-mo	.
!	!	!	!	!	!	!LO:LB:g=original	!	!
=16	=16	=16	=16	=16	=16	=16	=16	=16
!LO:TX:t=P:problem=mixed beam	!	!	!	!	!	!LO:TUP:a:problem=klamra łukowa	!	!
8G\L	.	4.ryy	4.ryy	4.ryy	4.ryy	24b\LL	e-	4.ryy
.	.	.	.	.	.	24a\	.	.
.	.	.	.	.	.	24g\JJ	.	.
*	*below	*	*	*	*	*	*	*
8A\	4	.	.	.	.	8f#\L	.	.
8AA/J	3	.	.	.	.	8e\J	.	.
=17	=17	=17	=17	=17	=17	=17	=17	=17
4D\	.	4.ryy	4.ryy	4.ryy	4.ryy	4d\	-ius	4.ryy
8A\	.	.	.	.	.	8r	.	.
!LO:LB:g=original	!	!	!	!	!	!	!	!
=18	=18	=18	=18	=18	=18	=18	=18	=18
!	!	!	!	!	!	!LO:TX:b:t=1	!	!
8d\L	.	4.ryy	4.ryy	4.ryy	4.ryy	4.r	.	4.ryy
8d\	.	.	.	.	.	.	.	.
8c#\J	.	.	.	.	.	.	.	.
=19	=19	=19	=19	=19	=19	=19	=19	=19
4d\	.	4.ryy	4.ryy	4.ryy	4.ryy	4.dd\	et	4.ryy
8r	.	.	.	.	.	.	.	.
=20	=20	=20	=20	=20	=20	=20	=20	=20
4.A\	.	4.ryy	4.ryy	4.ryy	4.ryy	4.a\	iu-	4.ryy
=21	=21	=21	=21	=21	=21	=21	=21	=21
8Fn\L	.	4.ryy	4.ryy	4.ryy	4.ryy	8fn\	ſti-	4.ryy
8E\	.	.	.	.	.	8e\	-ti-	.
8D\J	.	.	.	.	.	8d\	-a	.
!	!	!	!	!	!	!LO:LB:g=original	!	!
=22	=22	=22	=22	=22	=22	=22	=22	=22
8D\L	.	4.ryy	4.ryy	4.ryy	4.ryy	8d\L	e-	4.ryy
8B-X\	.	.	.	.	.	8b-X\J	.	.
8D\J	.	.	.	.	.	8d\	-ius	.
=23	=23	=23	=23	=23	=23	=23	=23	=23
8C#\L	.	4.ryy	4.ryy	4.ryy	4.ryy	16c#\LL	ma-	4.ryy
.	.	.	.	.	.	16d\JJ	.	.
8C#\	.	.	.	.	.	8e\	-net	.
8C#\J	.	.	.	.	.	8r	.	.
!LO:LB:g=original	!	!	!	!	!	!	!	!
=24	=24	=24	=24	=24	=24	=24	=24	=24
!	!	!	!	!	!	!LO:N:vis=4.	!	!
8C#\L	.	4.ryy	4.ryy	4.ryy	4.ryy	4e\	in	4.ryy
8C#\	.	.	.	.	.	.	.	.
8C#\J	.	.	.	.	.	16d\LL	.	.
.	.	.	.	.	.	16e\JJ	.	.
=25	=25	=25	=25	=25	=25	=25	=25	=25
*	*above	*	*	*	*	*	*	*
8D\L	#3	4.ryy	4.ryy	4.ryy	4.ryy	16f#X\LL	sae-	4.ryy
.	.	.	.	.	.	16g\	.	.
8D\	.	.	.	.	.	16f#\	.	.
.	.	.	.	.	.	16e\	.	.
8D\J	.	.	.	.	.	16f#\	.	.
.	.	.	.	.	.	16d\JJ	.	.
!	!	!	!	!	!	!LO:LB:g=original	!	!
=26	=26	=26	=26	=26	=26	=26	=26	=26
8D\L	.	4.ryy	4.ryy	4.ryy	4.ryy	4f#\	.	4.ryy
8D\	.	.	.	.	.	.	.	.
8D\J	.	.	.	.	.	8r	.	.
=27	=27	=27	=27	=27	=27	=27	=27	=27
8E\L	#	4.ryy	4.ryy	4.ryy	4.ryy	16g#X\LL	.	4.ryy
.	.	.	.	.	.	16a\	.	.
8E\	.	.	.	.	.	16g#\	.	.
.	.	.	.	.	.	16f#\	.	.
8E\J	.	.	.	.	.	16g#\	.	.
.	.	.	.	.	.	16e\JJ	.	.
=28	=28	=28	=28	=28	=28	=28	=28	=28
8E\L	.	4.ryy	4.ryy	4.ryy	4.ryy	4.g#X\	.	4.ryy
8E\	.	.	.	.	.	.	.	.
8E\J	.	.	.	.	.	.	.	.
=29	=29	=29	=29	=29	=29	=29	=29	=29
8F#\L	.	4.ryy	4.ryy	4.ryy	4.ryy	16a\LL	.	4.ryy
.	.	.	.	.	.	16b\	.	.
8F#\	.	.	.	.	.	16a\	.	.
.	.	.	.	.	.	16g#X\	.	.
8F#\J	.	.	.	.	.	16a\	.	.
.	.	.	.	.	.	16f#\JJ	.	.
!LO:LB:g=original	!	!	!	!	!	!	!	!
=30	=30	=30	=30	=30	=30	=30	=30	=30
8F#\L	.	4.ryy	4.ryy	4.ryy	4.ryy	4.a\	.	4.ryy
8F#\	.	.	.	.	.	.	.	.
8F#\J	.	.	.	.	.	.	.	.
=31	=31	=31	=31	=31	=31	=31	=31	=31
8G#X\L	.	4.ryy	4.ryy	4.ryy	4.ryy	16b\LL	.	4.ryy
.	.	.	.	.	.	16cc#\	.	.
8G#\	.	.	.	.	.	16b\	.	.
.	.	.	.	.	.	16a\	.	.
8G#\J	.	.	.	.	.	16b\	.	.
.	.	.	.	.	.	16g#X\JJ	.	.
=32	=32	=32	=32	=32	=32	=32	=32	=32
8G#X\L	.	4.ryy	4.ryy	4.ryy	4.ryy	4.b\	.	4.ryy
8G#\	.	.	.	.	.	.	.	.
8G#\J	.	.	.	.	.	.	.	.
=33	=33	=33	=33	=33	=33	=33	=33	=33
!	!	!	!	!	!	!LO:N:vis=8	!	!
4A\	.	4.ryy	4.ryy	4.ryy	4.ryy	16cc#\LL	-cu-	4.ryy
!	!	!	!	!	!	!LO:N:vis=8	!	!
.	.	.	.	.	.	16b\JJ	.	.
.	.	.	.	.	.	8a\	-lum	.
8r	.	.	.	.	.	8a\	in	.
!	!	!	!	!	!	!LO:LB:g=original	!	!
=34	=34	=34	=34	=34	=34	=34	=34	=34
4A\	.	4.ryy	4.ryy	4.ryy	4.ryy	4a\	sae-	4.ryy
8E\	#	.	.	.	.	8b\	.	.
=35	=35	=35	=35	=35	=35	=35	=35	=35
!	!	!	!	!	!	!LO:SIC:v:s=8qqdd	!	!
.	.	.	.	.	.	8qqa/	.	.
4AA/	.	4.ryy	4.ryy	4.ryy	4.ryy	4cc#\	.	4.ryy
8E\	#3	.	.	.	.	8b\	.	.
=36	=36	=36	=36	=36	=36	=36	=36	=36
8A\	.	4.ryy	4.ryy	4.ryy	4.ryy	4a\	.	4.ryy
8r	.	.	.	.	.	.	.	.
8E\	#3	.	.	.	.	8b\	.	.
!LO:LB:g=original	!	!	!	!	!	!	!	!
=37	=37	=37	=37	=37	=37	=37	=37	=37
4AA/	.	4.ryy	4.ryy	4.ryy	4.ryy	4cc#\	.	4.ryy
8E\	#	.	.	.	.	8b\	.	.
=38	=38	=38	=38	=38	=38	=38	=38	=38
4A\	.	4.ryy	4.ryy	4.ryy	4.ryy	8a\	.	4.ryy
.	.	.	.	.	.	8b\	-cu-	.
8A\	.	.	.	.	.	8cc#\	-lum	.
!	!	!	!	!	!	!LO:LB:g=original	!	!
=39	=39	=39	=39	=39	=39	=39	=39	=39
8D\L	.	4.ryy	4.ryy	4.ryy	4.ryy	8f#\L	sae-	4.ryy
8F#\	.	.	.	.	.	8dd\	.	.
8E\J	6	.	.	.	.	8cc#\J	.	.
=40	=40	=40	=40	=40	=40	=40	=40	=40
8D\L	.	4.ryy	4.ryy	4.ryy	4.ryy	16b\LL	.	4.ryy
.	.	.	.	.	.	16f#\JJ	.	.
8E\	#	.	.	.	.	4g#X\	-cu-	.
8E\J	.	.	.	.	.	.	.	.
=41	=41	=41	=41	=41	=41	=41	=41	=41
8.A\L	.	4.ryy	4.ryy	4.ryy	4.ryy	4a\	-li	4.ryy
16B\K	.	.	.	.	.	.	.	.
8A\J	.	.	.	.	.	8r	.	.
=42	=42	=42	=42	=42	=42	=42	=42	=42
!	!	!	!	!	!	!LO:TX:t=P:problem=pauza 00r	!	!
!	!	!	!	!	!	!LO:TX:b:t=4	!	!
8AA/	.	4.ryy	4.ryy	4.ryy	4.ryy	4.r	.	4.ryy
4A\	.	.	.	.	.	.	.	.
!LO:LB:g=original	!	!	!	!	!	!	!	!
=43	=43	=43	=43	=43	=43	=43	=43	=43
16G#\LL	.	4.ryy	4.ryy	4.ryy	4.ryy	4.r	.	4.ryy
16F#\JJ	.	.	.	.	.	.	.	.
4E\	.	.	.	.	.	.	.	.
=44	=44	=44	=44	=44	=44	=44	=44	=44
8F#\L	.	4.ryy	4.ryy	4.ryy	4.ryy	4.r	.	4.ryy
8E\	.	.	.	.	.	.	.	.
8D\J	.	.	.	.	.	.	.	.
=45	=45	=45	=45	=45	=45	=45	=45	=45
16C#/LL	.	4.ryy	4.ryy	4.ryy	4.ryy	4.r	.	4.ryy
16BB/JJ	.	.	.	.	.	.	.	.
4AA/	.	.	.	.	.	.	.	.
=46	=46	=46	=46	=46	=46	=46	=46	=46
!LO:TX:a:t=Al.	!	!	!	!	!	!	!	!
4A\	.	4.ryy	4.ryy	4.ryy	4.ryy	8.a\	Glo-	4.ryy
.	.	.	.	.	.	16b\	-ri-	.
8r	.	.	.	.	.	8a\	-a	.
!	!	!	!	!	!	!LO:PB:g=original	!	!
=47	=47	=47	=47	=47	=47	=47	=47	=47
8A\L	.	4.ryy	4.ryy	4.ryy	4.ryy	8a\L	et	4.ryy
8F#\	.	.	.	.	.	8f#\J	.	.
8D#X\J	.	.	.	.	.	8d#X\	di-	.
=48	=48	=48	=48	=48	=48	=48	=48	=48
8E\L	.	4.ryy	4.ryy	4.ryy	4.ryy	8e\	-vi-	4.ryy
8G#X\	.	.	.	.	.	8g#X\	-ti-	.
8B\J	.	.	.	.	.	8b\	-ae	.
!LO:LB:g=original	!	!	!	!	!	!	!	!
=49	=49	=49	=49	=49	=49	=49	=49	=49
8c#\L	.	4.ryy	4.ryy	4.ryy	4.ryy	8cc#\L	et	4.ryy
8A\	.	.	.	.	.	8a\J	.	.
8F#\J	.	.	.	.	.	8f#\	di-	.
=50	=50	=50	=50	=50	=50	=50	=50	=50
8E\L	#	4.ryy	4.ryy	4.ryy	4.ryy	8.e\	-vi-	4.ryy
8E\	.	.	.	.	.	.	.	.
.	.	.	.	.	.	16d#X\	-ti-	.
8E\J	.	.	.	.	.	8e\	-ae	.
!	!	!	!	!	!	!LO:LB:g=original	!	!
=51	=51	=51	=51	=51	=51	=51	=51	=51
8A\L	#	4.ryy	4.ryy	4.ryy	4.ryy	8.a\	glo-	4.ryy
8A\	.	.	.	.	.	.	.	.
.	.	.	.	.	.	16b\	-ri-	.
8A\J	.	.	.	.	.	8a\	-a	.
=52	=52	=52	=52	=52	=52	=52	=52	=52
8A\L	.	4.ryy	4.ryy	4.ryy	4.ryy	8A/	et	4.ryy
8A\	.	.	.	.	.	4a\	di-	.
8A\J	.	.	.	.	.	.	.	.
=53	=53	=53	=53	=53	=53	=53	=53	=53
*	*below	*	*	*	*	*	*	*
8A\L	47	4.ryy	4.ryy	4.ryy	4.ryy	8.gn\	-vi-	4.ryy
8A\	.	.	.	.	.	.	.	.
.	.	.	.	.	.	16a\	-ti-	.
8A\J	.	.	.	.	.	8g\	-ae	.
=54	=54	=54	=54	=54	=54	=54	=54	=54
8A\L	.	4.ryy	4.ryy	4.ryy	4.ryy	8g\	in	4.ryy
8A\	.	.	.	.	.	8ee\	do-	.
8A\J	.	.	.	.	.	8g\	-mo	.
!LO:PB:g=original	!	!	!	!	!	!LO:LB:g=original	!	!
=55	=55	=55	=55	=55	=55	=55	=55	=55
*	*above	*	*	*	*	*	*	*
8A\L	6 4	4.ryy	4.ryy	4.ryy	4.ryy	16f#\LL	e-	4.ryy
.	.	.	.	.	.	16e\JJ	.	.
8A\	.	.	.	.	.	4f#\	-ius	.
8A\J	.	.	.	.	.	.	.	.
=56	=56	=56	=56	=56	=56	=56	=56	=56
8A\L	.	4.ryy	4.ryy	4.ryy	4.ryy	16dd\LL	in	4.ryy
.	.	.	.	.	.	16a\JJ	.	.
8A\	.	.	.	.	.	8gn\	do-	.
8A\J	.	.	.	.	.	8f#\	-mo	.
=57	=57	=57	=57	=57	=57	=57	=57	=57
8A\L	6 4	4.ryy	4.ryy	4.ryy	4.ryy	8f#\	e-	4.ryy
8A\	5 3	.	.	.	.	8e\	-ius	.
8A\J	.	.	.	.	.	8r	.	.
=58	=58	=58	=58	=58	=58	=58	=58	=58
!	!	!	!	!	!	!LO:TUP:a:problem=klamra łukowa	!	!
8d\L	.	4.ryy	4.ryy	4.ryy	4.ryy	24f#\LL	et	4.ryy
.	.	.	.	.	.	24g\	.	.
.	.	.	.	.	.	24a\JJ	.	.
8B\	.	.	.	.	.	4g\	iu-	.
8c#\J	.	.	.	.	.	.	.	.
=59	=59	=59	=59	=59	=59	=59	=59	=59
!	!	!	!	!	!	!LO:TUP:a:problem=klamra łukowa	!	!
8d\L	.	4.ryy	4.ryy	4.ryy	4.ryy	24f#\LL	-sti-	4.ryy
.	.	.	.	.	.	24g\	.	.
.	.	.	.	.	.	24a\JJ	.	.
8B\	.	.	.	.	.	4g\	-tia	.
8c#\J	.	.	.	.	.	.	.	.
!	!	!	!	!	!	!LO:LB:g=original	!	!
=60	=60	=60	=60	=60	=60	=60	=60	=60
!	!	!	!	!	!	!LO:TUP:a:problem=klamra łukowa	!	!
8d\L	.	4.ryy	4.ryy	4.ryy	4.ryy	24f#\LL	e-	4.ryy
.	.	.	.	.	.	24g\	.	.
.	.	.	.	.	.	24a\JJ	.	.
8B\	.	.	.	.	.	4g\	-ius	.
8c#\J	.	.	.	.	.	.	.	.
!LO:LB:g=original	!	!	!	!	!	!	!	!
=61	=61	=61	=61	=61	=61	=61	=61	=61
8d\L	.	4.ryy	4.ryy	4.ryy	4.ryy	8f#\L	ma-	4.ryy
8d\	.	.	.	.	.	16r	.	.
.	.	.	.	.	.	16f#\Jk	.	.
8d\J	.	.	.	.	.	16.f#\LL	.	.
.	.	.	.	.	.	64e\LL	.	.
.	.	.	.	.	.	64f#\JJJJ	.	.
=62	=62	=62	=62	=62	=62	=62	=62	=62
*	*below	*	*	*	*	*	*	*
8d\L	2	4.ryy	4.ryy	4.ryy	4.ryy	8g\L	.	4.ryy
8d\	.	.	.	.	.	16r	.	.
.	.	.	.	.	.	16g\Jk	.	.
8d\J	.	.	.	.	.	16.g\LL	.	.
.	.	.	.	.	.	64f#\LL	.	.
.	.	.	.	.	.	64g\JJJJ	.	.
=63	=63	=63	=63	=63	=63	=63	=63	=63
8D\L	.	4.ryy	4.ryy	4.ryy	4.ryy	8a\L	.	4.ryy
*	*above	*	*	*	*	*	*	*
8D\	5 3	.	.	.	.	16r	.	.
.	.	.	.	.	.	16a\Jk	.	.
8D\J	.	.	.	.	.	16.a\LL	.	.
.	.	.	.	.	.	64g\LL	.	.
.	.	.	.	.	.	64a\JJJJ	.	.
!	!	!	!	!	!	!LO:LB:g=original	!	!
=64	=64	=64	=64	=64	=64	=64	=64	=64
8D\L	6 4	4.ryy	4.ryy	4.ryy	4.ryy	8b\L	.	4.ryy
8D\	.	.	.	.	.	16r	.	.
.	.	.	.	.	.	16b\Jk	.	.
8D\J	.	.	.	.	.	16.b\LL	.	.
.	.	.	.	.	.	64a\LL	.	.
.	.	.	.	.	.	64b\JJJJ	.	.
=65	=65	=65	=65	=65	=65	=65	=65	=65
8D\L	#7	4.ryy	4.ryy	4.ryy	4.ryy	8cc#\L	.	4.ryy
8D\	.	.	.	.	.	16r	.	.
.	.	.	.	.	.	16cc#\Jk	.	.
8D\J	.	.	.	.	.	16.cc#\LL	.	.
.	.	.	.	.	.	64b\LL	.	.
.	.	.	.	.	.	64cc#\JJJJ	.	.
=66	=66	=66	=66	=66	=66	=66	=66	=66
8D\L	.	4.ryy	4.ryy	4.ryy	4.ryy	8dd\	.	4.ryy
8D\	.	.	.	.	.	8d\	-net	.
8A\J	.	.	.	.	.	8e\	in	.
!LO:LB:g=original	!	!	!	!	!	!	!	!
=67	=67	=67	=67	=67	=67	=67	=67	=67
8d\	.	4.ryy	4.ryy	4.ryy	4.ryy	4f#\	sae-	4.ryy
8r	.	.	.	.	.	.	.	.
!	!	!	!	!	!	!LO:TUP:a:problem=klamra łukowa	!	!
8c#\	.	.	.	.	.	24e\LL	.	.
.	.	.	.	.	.	24f#\	.	.
.	.	.	.	.	.	24g\JJ	.	.
!	!	!	!	!	!	!LO:LB:g=original	!	!
=68	=68	=68	=68	=68	=68	=68	=68	=68
8d\	.	4.ryy	4.ryy	4.ryy	4.ryy	4f#\	.	4.ryy
8r	.	.	.	.	.	.	.	.
!	!	!	!	!	!	!LO:TUP:a:problem=klamra łukowa	!	!
8c#\	.	.	.	.	.	24e\LL	.	.
.	.	.	.	.	.	24f#\	.	.
.	.	.	.	.	.	24g\JJ	.	.
=69	=69	=69	=69	=69	=69	=69	=69	=69
8d\	.	4.ryy	4.ryy	4.ryy	4.ryy	4f#\	.	4.ryy
8r	.	.	.	.	.	.	.	.
!	!	!	!	!	!	!LO:TUP:a:problem=klamra łukowa	!	!
8c#\	.	.	.	.	.	24e\LL	.	.
.	.	.	.	.	.	24f#\	.	.
.	.	.	.	.	.	24g\JJ	.	.
=70	=70	=70	=70	=70	=70	=70	=70	=70
8d\	.	4.ryy	4.ryy	4.ryy	4.ryy	8f#\	.	4.ryy
8r	.	.	.	.	.	8g\	-cu-	.
8F#\	.	.	.	.	.	8a\	-lum	.
=71	=71	=71	=71	=71	=71	=71	=71	=71
*	*below	*	*	*	*	*tuplet	*	*
!LO:TX:t=P:problem=mixed beam	!	!	!	!	!	!LO:TUP:a:problem=klamra łukowa	!	!
8G\L	.	4.ryy	4.ryy	4.ryy	4.ryy	24b\LL	sae-	4.ryy
.	.	.	.	.	.	24a\	.	.
.	.	.	.	.	.	24g\J	.	.
8A\	4	.	.	.	.	8f#\J	.	.
8AA/J	3	.	.	.	.	8e\	-cu-	.
!LO:LB:g=original	!	!	!	!	!	!LO:LB:g=original	!	!
=72	=72	=72	=72	=72	=72	=72	=72	=72
8D/	.	4.ryy	4.ryy	4.ryy	4.ryy	8d\	-li	4.ryy
8r	.	.	.	.	.	8r	.	.
8C#/	.	.	.	.	.	8e\	in	.
=73	=73	=73	=73	=73	=73	=73	=73	=73
8D/	.	4.ryy	4.ryy	4.ryy	4.ryy	4f#\	sae-	4.ryy
8r	.	.	.	.	.	.	.	.
*	*	*	*	*	*	*Xtuplet	*	*
!	!	!	!	!	!	!LO:TUP:a:problem=klamra łukowa	!	!
8C#/	.	.	.	.	.	24e\LL	.	.
.	.	.	.	.	.	24f#\	.	.
.	.	.	.	.	.	24g\JJ	.	.
=74	=74	=74	=74	=74	=74	=74	=74	=74
8D/	.	4.ryy	4.ryy	4.ryy	4.ryy	4f#\	.	4.ryy
8r	.	.	.	.	.	.	.	.
!	!	!	!	!	!	!LO:TUP:a:problem=klamra łukowa	!	!
8C#/	.	.	.	.	.	24e\LL	.	.
.	.	.	.	.	.	24f#\	.	.
.	.	.	.	.	.	24g\JJ	.	.
=75	=75	=75	=75	=75	=75	=75	=75	=75
8D/	.	4.ryy	4.ryy	4.ryy	4.ryy	4f#\	.	4.ryy
8r	.	.	.	.	.	.	.	.
!	!	!	!	!	!	!LO:TUP:a:problem=klamra łukowa	!	!
8C#/	.	.	.	.	.	24e\LL	.	.
.	.	.	.	.	.	24f#\	.	.
.	.	.	.	.	.	24g\JJ	.	.
!	!	!	!	!	!	!LO:LB:g=original	!	!
=76	=76	=76	=76	=76	=76	=76	=76	=76
8D\L	.	4.ryy	4.ryy	4.ryy	4.ryy	8f#\	.	4.ryy
8E\	.	.	.	.	.	8g\	-cu-	.
8F#\J	.	.	.	.	.	8a\	-lum	.
=77	=77	=77	=77	=77	=77	=77	=77	=77
*	*	*	*	*	*	*tuplet	*	*
!LO:TX:t=P:problem=mixed beam	!	!	!	!	!	!LO:TUP:a	!	!
8G\L	.	4.ryy	4.ryy	4.ryy	4.ryy	24b\LL	sae-	4.ryy
.	.	.	.	.	.	24a\	.	.
.	.	.	.	.	.	24g\J	.	.
8A\	4	.	.	.	.	8f#\J	.	.
8AA/J	3	.	.	.	.	8e\	-cu-	.
!LO:LB:g=original	!	!	!	!	!	!	!	!
=78	=78	=78	=78	=78	=78	=78	=78	=78
8D\L	.	4.ryy	4.ryy	4.ryy	4.ryy	8d\	-li	4.ryy
8d\	.	.	.	.	.	8dd\	ma-	.
8c#\J	.	.	.	.	.	8cc#\	-net	.
=79	=79	=79	=79	=79	=79	=79	=79	=79
8B\L	.	4.ryy	4.ryy	4.ryy	4.ryy	8b\	ma-	4.ryy
8A\	.	.	.	.	.	8a\	-net	.
8G\J	.	.	.	.	.	8g\	in	.
!	!	!	!	!	!	!LO:LB:g=original	!	!
=80	=80	=80	=80	=80	=80	=80	=80	=80
8F#\L	.	4.ryy	4.ryy	4.ryy	4.ryy	8f#\	sae-	4.ryy
8E\	.	.	.	.	.	8e\	-cu-	.
8D\J	.	.	.	.	.	8d\	-lum	.
=81	=81	=81	=81	=81	=81	=81	=81	=81
8G\L	.	4.ryy	4.ryy	4.ryy	4.ryy	8g\	sae-	4.ryy
8A\	.	.	.	.	.	4a\	-cu-	.
8A\J	.	.	.	.	.	.	.	.
=82	=82	=82	=82	=82	=82	=82	=82	=82
!LO:TX:a:t=rit(ornel)lo.	!	!	!	!	!	!	!	!
8.D\L	.	4.ryy	4.ryy	4.ryy	4.ryy	4d\	-li	4.ryy
16E\K	.	.	.	.	.	.	.	.
8D\J	.	.	.	.	.	8r	.	.
=83	=83	=83	=83	=83	=83	=83	=83	=83
!	!	!	!	!	!	!LO:TX:t=P:problem=pauza 00r+0r	!	!
!	!	!	!	!	!	!LO:TX:b:t=6	!	!
8D\	.	4.ryy	4.ryy	4.ryy	4.ryy	4.r	.	4.ryy
4d\	.	.	.	.	.	.	.	.
!LO:LB:g=original	!	!	!	!	!	!	!	!
=84	=84	=84	=84	=84	=84	=84	=84	=84
8.c#\L	.	4.ryy	4.ryy	4.ryy	4.ryy	4.r	.	4.ryy
16B\K	.	.	.	.	.	.	.	.
8A\J	.	.	.	.	.	.	.	.
=85	=85	=85	=85	=85	=85	=85	=85	=85
8B\L	.	4.ryy	4.ryy	4.ryy	4.ryy	4.r	.	4.ryy
8A\	.	.	.	.	.	.	.	.
8G\J	.	.	.	.	.	.	.	.
=86	=86	=86	=86	=86	=86	=86	=86	=86
8F#\L	.	4.ryy	4.ryy	4.ryy	4.ryy	4.r	.	4.ryy
8E\	.	.	.	.	.	.	.	.
8D\J	.	.	.	.	.	.	.	.
=87	=87	=87	=87	=87	=87	=87	=87	=87
8G\L	.	4.ryy	4.ryy	4.ryy	4.ryy	4.r	.	4.ryy
8E\	.	.	.	.	.	.	.	.
8A\J	.	.	.	.	.	.	.	.
=88	=88	=88	=88	=88	=88	=88	=88	=88
!	!	!	!	!	!	!LO:TX:t=P:problem=pojedyncza kreska taktowa	!	!
4D\	.	4.ryy	4.ryy	4.ryy	4.ryy	4.r	.	4.ryy
8r	.	.	.	.	.	.	.	.
!LO:LB:g=original	!	!	!	!	!	!LO:PB:g=original	!	!
==	==	==	==	==	==	==	==	==
*-	*-	*-	*-	*-	*-	*-	*-	*-
!!!system-decoration: [(s1,s2)][(s3,s4,s5,s6)][(s7)]
!!!RDF**kern: < = below
!!!RDF**kern: > = above
!!!ENC: Marta Chmielewska
!!!END: 2021-03-29
!!!ENC: Andrzej Gręziak
!!!END: 2021-03-17
!!!YEC: Copyright 2022 Narodowy Instytut Fryderyka Chopina (https://polishscores.org)
!!!YEM: License CC-BY-4.0 (https://creativecommons.org/licenses/by/4.0)
